components/ui-node-icon/src/pivot/pivot.small.svg

<svg width="16" height="16" viewBox="0 0 16 16" fill="none" xmlns="http://www.w3.org/2000/svg">
  <path fill-rule="evenodd" clip-rule="evenodd" d="M7 3L13 3V6H7V3ZM6 3L3 3V6H6L6 3ZM6 7H3L3 13H6L6 7ZM2 6V3C2 2.96548 2.00175 2.93137 2.00516 2.89776C2.01976 2.75398 2.06482 2.61921 2.13378 2.5C2.22607 2.34047 2.36115 2.2088 2.52334 2.12069C2.66503 2.04372 2.82741 2 3 2H6H13C13.5523 2 14 2.44772 14 3V6C14 6.55229 13.5523 7 13 7H7L7 13C7 13.5523 6.55228 14 6 14H3C2.44771 14 2 13.5523 2 13V6ZM13.9919 9.28479L14.5606 9.85355C14.7559 10.0488 15.0725 10.0488 15.2677 9.85355C15.463 9.65829 15.463 9.34171 15.2677 9.14645L13.8535 7.73223C13.7598 7.63846 13.6326 7.58579 13.5 7.58579C13.3674 7.58579 13.2402 7.63846 13.1464 7.73223L11.7322 9.14645C11.537 9.34171 11.537 9.65829 11.7322 9.85355C11.9275 10.0488 12.2441 10.0488 12.4393 9.85355L12.9897 9.30317C12.9577 9.72481 12.8589 10.1394 12.6966 10.5312C12.4956 11.0166 12.2008 11.4577 11.8293 11.8293C11.4577 12.2008 11.0166 12.4956 10.5312 12.6966C10.0457 12.8977 9.52545 13.0012 9 13.0012V13H8.5C8.22386 13 8 13.2239 8 13.5C8 13.7761 8.22386 14 8.5 14H9C9.65661 14 10.3068 13.8707 10.9134 13.6194C11.52 13.3681 12.0712 12.9998 12.5355 12.5355C12.9998 12.0712 13.3681 11.52 13.6194 10.9134C13.8343 10.3947 13.96 9.84404 13.9919 9.28479Z" fill="currentColor"/>
</svg>

<svg xmlns="http://www.w3.org/2000/svg" width="16" height="16" fill="none" viewBox="0 0 16 16">
  <path fill="currentColor" fill-rule="evenodd" d="M7 3h6v3H7V3ZM6 3H3v3h3V3Zm0 4H3v6h3V7ZM2 6V3a1.013 1.013 0 0 1 .134-.5A1.005 1.005 0 0 1 3 2h10a1 1 0 0 1 1 1v3a1 1 0 0 1-1 1H7v6a1 1 0 0 1-1 1H3a1 1 0 0 1-1-1V6Zm11.992 3.285.569.569a.5.5 0 0 0 .707-.708l-1.415-1.414a.5.5 0 0 0-.707 0l-1.414 1.414a.5.5 0 0 0 .707.708l.55-.55A4 4 0 0 1 9 13V13h-.5a.5.5 0 0 0 0 1H9a5 5 0 0 0 4.992-4.715Z" clip-rule="evenodd"/>
</svg>
